src/images/single-assets/REVV.svg

<svg width="96" height="96" viewBox="0 0 96 96" fill="none" xmlns="http://www.w3.org/2000/svg">
<path d="M48 95.5299C74.5097 95.5299 96 74.2501 96 48.0001C96 21.7501 74.5097 0.470215 48 0.470215C21.4903 0.470215 0 21.7501 0 48.0001C0 74.2501 21.4903 95.5299 48 95.5299Z" fill="white"/>
<path d="M6.72601 65.2837C6.63419 65.5076 6.51941 65.7315 6.38168 65.9329C5.53233 67.2762 5.25686 68.7091 5.16504 69.6941C6.2669 71.8882 7.57537 73.9926 9.02157 76.0076C9.09043 75.2911 9.25112 74.5076 9.54954 73.7016C10.0087 72.4479 9.66432 71.1941 9.52659 70.7911C8.44768 69.0225 7.52946 67.1867 6.72601 65.2837Z" fill="black"/>
<path d="M3.23643 36.5152C4.45307 36.045 5.11878 34.9704 5.34833 34.5674C5.96813 32.5749 6.72566 30.6271 7.62093 28.7241C7.39138 28.8137 7.13887 28.8585 6.8634 28.9032C5.30242 29.1719 4.03987 29.9107 3.25938 30.4928C2.34116 32.8211 1.62954 35.239 1.10156 37.6793C1.69841 37.2764 2.41003 36.851 3.23643 36.5152Z" fill="black"/>
<path d="M35.5581 3.35827C36.6141 4.20902 37.9455 4.23141 38.3128 4.20902C40.3329 3.76126 42.3759 3.47021 44.4649 3.29111C44.2583 3.11201 44.0517 2.91051 43.868 2.66424C42.9728 1.56723 41.8709 0.8732 40.9986 0.470215C38.4965 0.828424 36.0173 1.41051 33.6299 2.14932C34.2497 2.46275 34.9154 2.84335 35.5581 3.35827Z" fill="black"/>
<path d="M26.5597 6.9403C27.7304 7.52239 28.97 7.29851 29.3832 7.20896C31.2885 6.33582 33.2397 5.59702 35.2369 5.01493C35.0073 4.8806 34.7778 4.72388 34.5482 4.54478C33.4234 3.64925 32.1608 3.20149 31.2197 3C28.8552 3.87313 26.5597 4.94776 24.356 6.1791C25.0905 6.31343 25.8251 6.5597 26.5597 6.9403Z" fill="black"/>
<path d="M6.58853 27.4255C7.87404 27.2016 8.74635 26.3061 9.04477 25.9703C10.0778 24.1568 11.2255 22.3882 12.5111 20.7314C12.2585 20.7538 11.9831 20.7762 11.6847 20.7538C10.1466 20.6867 8.79226 21.1344 7.91995 21.5374C6.51967 23.6419 5.30302 25.8583 4.24707 28.1643C4.95869 27.8508 5.73918 27.5822 6.58853 27.4255Z" fill="black"/>
<path d="M18.525 12.3138C19.8565 12.6496 21.0731 12.1123 21.3945 11.9556C23.0702 10.7018 24.8149 9.58243 26.6283 8.59736C26.3758 8.5078 26.1233 8.41825 25.8479 8.28392C24.5394 7.63467 23.208 7.45557 22.2438 7.45557C20.1319 8.79885 18.1119 10.3212 16.2065 12.0227C16.9411 12.0227 17.7216 12.0899 18.525 12.3138Z" fill="black"/>
<path d="M11.7765 19.2311C13.2227 19.2982 14.3705 18.4027 14.5542 18.246C15.151 17.5743 15.7478 16.9251 16.3906 16.2982C17.217 15.4699 18.0663 14.6863 18.9616 13.9251C18.6861 13.9027 18.4107 13.8579 18.1352 13.7908C16.689 13.4102 15.3346 13.5445 14.3935 13.746C14.2557 13.8803 14.141 13.9923 14.0032 14.1266C12.3275 15.8057 10.7894 17.5967 9.38916 19.4773C10.1237 19.2982 10.9272 19.2087 11.7765 19.2311Z" fill="black"/>
<path d="M1.83644 46.1193C3.00717 45.3581 3.42037 44.0372 3.51219 43.7014C3.69583 41.6417 4.04017 39.6044 4.52223 37.6118C4.31563 37.7461 4.08608 37.8581 3.83357 37.9476C2.34146 38.5297 1.2855 39.5372 0.642749 40.276C0.252505 42.7163 0.0459047 45.2238 0.0229492 47.7312C0.505015 47.1715 1.10186 46.6118 1.83644 46.1193Z" fill="black"/>
<path d="M77.4749 83.6865C76.1435 83.3507 74.9268 83.888 74.6054 84.0447C72.9297 85.2985 71.1851 86.4179 69.3945 87.403C69.647 87.4925 69.8996 87.5821 70.175 87.7164C71.4835 88.3656 72.8149 88.5448 73.779 88.5448C75.8909 87.2015 77.911 85.6791 79.8163 83.9776C79.0588 83.9776 78.2783 83.9104 77.4749 83.6865Z" fill="black"/>
<path d="M94.1638 49.8805C92.9931 50.6417 92.5799 51.9626 92.4881 52.2984C92.3044 54.3581 91.9601 56.3954 91.478 58.3879C91.6846 58.2536 91.9142 58.1417 92.1667 58.0521C93.6358 57.47 94.7148 56.4626 95.3575 55.7238C95.7478 53.2835 95.9544 50.7984 95.9773 48.2686C95.4952 48.8283 94.8984 49.388 94.1638 49.8805Z" fill="black"/>
<path d="M60.4419 92.6421C59.3859 91.7914 58.0545 91.769 57.6872 91.7914C55.6672 92.2392 53.6241 92.5302 51.5352 92.7093C51.7418 92.8884 51.9484 93.0899 52.132 93.3362C53.0273 94.4332 54.1291 95.1272 55.0014 95.5302C57.5036 95.172 59.9828 94.5899 62.3702 93.8511C61.7504 93.5377 61.0847 93.1571 60.4419 92.6421Z" fill="black"/>
<path d="M41.2742 93.8732C40.6314 92.6642 39.4378 92.0821 39.0934 91.9478C37.0733 91.5448 35.0992 90.9851 33.1709 90.3135C33.2857 90.5597 33.3775 90.806 33.4464 91.0747C33.8366 92.4627 34.5712 93.5597 35.2139 94.2985C37.6013 94.9478 40.0576 95.4179 42.5597 95.709C42.0776 95.1941 41.6415 94.5896 41.2742 93.8732Z" fill="black"/>
<path d="M89.1594 60.9628L89.2742 60.9404C90.1694 58.0971 91.1565 55.1419 91.1565 52.0971C91.1565 50.7538 91.2483 49.4329 91.2483 48.0449C91.2483 46.3658 91.0417 44.6643 90.8581 43.0971H90.9499V43.0299C90.4908 39.9852 89.894 37.0076 88.9298 34.1867H88.9069L88.8839 34.1643C83.1221 17.0374 66.9614 4.6792 48.0001 4.6792C28.7175 4.6792 12.3273 17.4628 6.84088 35.0374C6.84088 35.0374 6.84088 35.0374 6.81792 35.0598C5.53242 39.1344 4.84375 43.4777 4.84375 47.9777C4.84375 49.6568 4.93557 51.5822 5.11922 52.9255H5.30286V52.9926C5.76197 56.0374 6.24404 59.015 7.20817 61.8359H7.16226V61.8583C12.9241 78.9628 29.0618 91.321 48.0231 91.321C67.2828 91.321 83.673 78.5374 89.1594 60.9628ZM11.7304 48.0001C11.7304 27.8285 28.0059 11.418 48.0001 11.418C67.9944 11.418 84.2699 27.8285 84.2699 48.0001C84.2699 68.1717 67.9944 84.5822 48.0001 84.5822C28.0059 84.5822 11.7304 68.1717 11.7304 48.0001Z" fill="black"/>
<path d="M31.9312 91.4778C31.5868 90.2017 30.5768 89.4181 30.2095 89.1718C28.3272 88.3435 26.4907 87.3808 24.7231 86.3062C24.7691 86.5524 24.815 86.8211 24.8379 87.1121C24.9297 88.5897 25.4577 89.8435 25.9168 90.6718C28.1206 91.8136 30.4161 92.7987 32.7805 93.5823C32.4592 92.9554 32.1378 92.2614 31.9312 91.4778Z" fill="black"/>
<path d="M23.2772 87.1792C23.1854 85.7911 22.2901 84.7613 22.0376 84.4926C20.3848 83.3061 18.8009 82.0075 17.3088 80.5747C17.3088 80.8434 17.2858 81.112 17.2628 81.3807C17.0333 82.8583 17.3088 84.2016 17.6072 85.1419C19.5354 86.7314 21.5785 88.1643 23.7133 89.418C23.4838 88.7463 23.3231 88.0075 23.2772 87.1792Z" fill="black"/>
<path d="M64.0691 4.52245C64.4134 5.79857 65.4235 6.58215 65.7907 6.82842C67.6731 7.65677 69.5095 8.61946 71.2771 9.69409C71.2312 9.44782 71.1853 9.17916 71.1623 8.88812C71.0705 7.41051 70.5425 6.15677 70.0834 5.32842C67.8797 4.18663 65.5841 3.20155 63.2197 2.41797C63.5411 3.04483 63.8625 3.73886 64.0691 4.52245Z" fill="black"/>
<path d="M92.7634 59.4849C91.5697 59.9551 90.8811 61.0297 90.6515 61.4327C90.0317 63.4252 89.2742 65.373 88.3789 67.276C88.6085 67.2088 88.861 67.1416 89.1364 67.0968C90.6974 66.8282 91.96 66.0894 92.7405 65.4849C93.6587 63.1566 94.3703 60.761 94.8983 58.2983C94.3014 58.7237 93.5898 59.1491 92.7634 59.4849Z" fill="black"/>
<path d="M84.2237 76.7687C82.7775 76.7016 81.6297 77.5747 81.446 77.7538C80.8492 78.4255 80.2524 79.0747 79.6096 79.7016C78.7832 80.5299 77.9338 81.3135 77.0386 82.0747C77.314 82.0971 77.5895 82.1419 77.865 82.209C79.3112 82.5896 80.6655 82.4553 81.6067 82.2538C81.7445 82.1195 81.8592 82.0076 81.997 81.8732C83.6727 80.1941 85.2107 78.4031 86.611 76.5225C85.8765 76.7016 85.073 76.7911 84.2237 76.7687Z" fill="black"/>
<path d="M80.2986 14.8207C80.0921 16.2759 80.8496 17.5296 80.9873 17.7535C82.3646 19.2759 83.6272 20.8655 84.775 22.5222C84.8209 22.2759 84.8897 22.0296 84.9816 21.7834C85.5095 20.3505 85.5095 18.9401 85.4177 17.955C84.3388 16.6341 83.214 15.358 81.9973 14.1267C81.4464 13.5893 80.8955 13.052 80.3446 12.5371C80.4134 13.2311 80.4134 14.0147 80.2986 14.8207Z" fill="black"/>
<path d="M89.4118 68.5747C88.1492 68.7986 87.254 69.6941 86.9555 70.03C85.9225 71.8434 84.7748 73.6121 83.4893 75.2688C83.7418 75.2464 84.0172 75.224 84.3157 75.2464C85.8537 75.3136 87.208 74.8658 88.0804 74.4628C89.4806 72.3583 90.6973 70.1419 91.7532 67.8359C91.0416 68.1494 90.2611 68.418 89.4118 68.5747Z" fill="black"/>
<path d="M45.0615 1.72388C46.0486 2.93284 47.5866 3.13433 47.6784 3.15672C47.7702 3.15672 47.885 3.15672 47.9768 3.15672C49.9281 3.15672 51.8563 3.29105 53.7387 3.53732C53.578 3.31343 53.4173 3.08955 53.2796 2.8209C52.6368 1.56717 51.6956 0.671642 50.9381 0.0895526C49.951 0.0223884 48.9639 0 47.9539 0C46.4159 0 44.9008 0.0671642 43.4087 0.223881C44.0055 0.604478 44.5565 1.1194 45.0615 1.72388Z" fill="black"/>
<path d="M50.9384 94.2763C49.9513 93.0898 48.4363 92.8659 48.3215 92.8435C48.2297 92.8435 48.1149 92.8435 48.0231 92.8435C46.0719 92.8435 44.1436 92.7092 42.2383 92.4629C42.399 92.6868 42.5597 92.9106 42.6974 93.1793C43.3401 94.433 44.2813 95.3286 45.0389 95.9107C46.0259 95.9778 47.013 96.0002 48.0231 96.0002C49.5611 96.0002 51.0761 95.933 52.5683 95.7763C51.9944 95.3957 51.4434 94.8808 50.9384 94.2763Z" fill="black"/>
<path d="M2.45622 55.7909C3.44331 54.7834 3.58104 53.4178 3.604 53.0596C3.42035 51.3804 3.32853 49.7013 3.32853 47.9998C3.32853 47.6416 3.32853 47.261 3.35149 46.9028C3.16784 47.0819 2.96124 47.2387 2.73169 47.373C1.40027 48.2461 0.550914 49.4551 0.0688477 50.3282C0.183625 52.8357 0.505002 55.3207 1.01002 57.7387C1.35436 57.0894 1.83642 56.4178 2.45622 55.7909Z" fill="black"/>
<path d="M15.7016 81.179C15.9312 79.7238 15.1507 78.4701 15.013 78.2462C13.6356 76.7238 12.3731 75.1343 11.2253 73.4775C11.1794 73.7238 11.1105 73.9701 11.0187 74.2163C10.4907 75.6492 10.4678 77.0596 10.5826 78.0447C11.6615 79.3656 12.7863 80.6641 14.0259 81.8731C14.5768 82.4104 15.1278 82.9477 15.6787 83.4626C15.5869 82.7686 15.5869 81.985 15.7016 81.179Z" fill="black"/>
<path d="M72.7233 8.82084C72.8151 10.2089 73.7104 11.2387 73.9629 11.5074C75.6157 12.694 77.1996 13.9925 78.6917 15.4253C78.6917 15.1567 78.7147 14.888 78.7376 14.6193C78.9672 13.1417 78.6917 11.7761 78.3933 10.8582C76.465 9.2686 74.422 7.83576 72.2871 6.58203C72.5167 7.25367 72.6774 7.99248 72.7233 8.82084Z" fill="black"/>
<path d="M54.703 2.12684C55.3457 3.33579 56.5394 3.89549 56.8838 4.05221C58.9039 4.45519 60.878 5.0149 62.8063 5.68654C62.6915 5.44027 62.5997 5.194 62.5308 4.92534C62.1406 3.53728 61.383 2.44027 60.7632 1.70146C58.3759 1.05221 55.9196 0.58206 53.4175 0.291016C53.9225 0.805941 54.3587 1.41042 54.703 2.12684Z" fill="black"/>
<path d="M5.05027 65.1269C5.73893 64.0299 5.67007 62.7538 5.62416 62.306C4.95845 60.3359 4.45342 58.3209 4.06318 56.2612C3.92545 56.4627 3.76476 56.6642 3.58112 56.8433C2.45629 57.9851 1.88241 59.3508 1.58398 60.2911C2.22674 62.709 3.03018 65.0597 4.04023 67.3209C4.26978 66.6269 4.59116 65.8657 5.05027 65.1269Z" fill="black"/>
<path d="M93.2913 48.6269C94.6227 47.7538 95.472 46.5224 95.9541 45.6717C95.8393 43.1642 95.5179 40.6791 95.0129 38.2612C94.6456 38.9105 94.1636 39.5821 93.5667 40.209C92.5796 41.2165 92.4419 42.5821 92.4189 42.9403C92.6026 44.6194 92.6944 46.2986 92.6944 48C92.6944 48.3583 92.6944 48.7389 92.6715 49.0971C92.8551 48.9403 93.0617 48.7612 93.2913 48.6269Z" fill="black"/>
<path d="M89.2741 30.7165C89.3659 30.4926 89.4807 30.2687 89.6184 30.0672C90.4677 28.7239 90.7662 27.2911 90.858 26.306C89.7332 24.112 88.4477 21.9851 87.0015 19.9702C86.9326 20.6866 86.7719 21.4702 86.4735 22.2762C86.0144 23.5299 86.3587 24.7837 86.4964 25.1866C87.5524 26.9777 88.4706 28.8135 89.2741 30.7165Z" fill="black"/>
<path d="M90.9499 30.8732C90.2612 31.9702 90.3301 33.2464 90.376 33.6941C91.0417 35.6643 91.5467 37.6792 91.9369 39.7389C92.0747 39.5374 92.2354 39.3359 92.419 39.1568C93.5438 38.015 94.1177 36.6494 94.4162 35.7091C93.7734 33.2911 92.97 30.9404 91.9599 28.6792C91.7304 29.3732 91.409 30.1344 90.9499 30.8732Z" fill="black"/>
<path d="M69.4404 89.0598C68.2696 88.4777 67.03 88.7016 66.6168 88.7912C64.7115 89.6643 62.7603 90.4031 60.7632 90.9852C60.9927 91.1195 61.2223 91.2762 61.4518 91.4553C62.5767 92.3509 63.8392 92.7986 64.7804 93.0001C67.1448 92.127 69.4404 91.0524 71.6441 89.7986C70.9095 89.6867 70.1749 89.4404 69.4404 89.0598Z" fill="black"/>
<path d="M66.1347 62.888L57.6871 51.7164C58.9726 51.2239 60.2811 50.4851 61.4977 49.4552C63.5407 47.6866 65.997 44.3507 65.997 38.5075C65.997 33.6269 63.8392 30.6492 62.0486 29.0149C57.8707 25.2761 52.3614 25.3881 50.5938 25.3881H33.7674C31.0816 25.3881 28.9238 27.5373 28.9238 30.1567C28.9238 30.2686 28.9468 30.403 28.9468 30.5149V34.791H40.6311H43.5465H49.0788H50.7775H52.6139C54.7258 34.791 56.4934 36.6045 56.4934 38.6642V39.5597C56.4934 41.6194 54.7258 43.2985 52.6139 43.2985H50.7775H49.0788H48.8722C47.0357 43.2985 45.3829 44.306 44.5565 45.8955C43.7301 47.4851 43.8908 49.388 44.9927 50.8209L58.3528 68.4851C59.294 69.7388 60.7631 70.4104 62.2552 70.4104C63.2423 70.4104 64.2524 70.1194 65.1247 69.4925C67.2595 67.9477 67.7186 64.9925 66.1347 62.888Z" fill="#FF0000"/>
<path d="M28.9468 43.2988V65.463H28.9927C29.337 68.3735 31.7933 70.4779 34.7545 70.4779C37.7158 70.4779 40.172 68.3063 40.5164 65.4854L40.5852 43.2988H28.9468Z" fill="black"/>
</svg>

<svg xmlns="http://www.w3.org/2000/svg" width="96" height="96" fill="none"><path fill="#fff" d="M48 95.53c26.51 0 48-21.28 48-47.53S74.51.47 48 .47 0 21.75 0 48s21.49 47.53 48 47.53"/><path fill="#000" d="M6.726 65.284a3.5 3.5 0 0 1-.344.649c-.85 1.343-1.125 2.776-1.217 3.761 1.102 2.194 2.41 4.299 3.857 6.314.068-.717.23-1.5.528-2.306.459-1.254.114-2.508-.023-2.91a41.6 41.6 0 0 1-2.801-5.508M3.236 36.515c1.217-.47 1.883-1.545 2.112-1.948a45 45 0 0 1 2.273-5.843c-.23.09-.482.134-.758.18-1.56.268-2.823 1.007-3.604 1.589a46.3 46.3 0 0 0-2.157 7.186 11.7 11.7 0 0 1 2.134-1.164M35.558 3.358c1.056.851 2.388.873 2.755.851a47 47 0 0 1 6.152-.918 4 4 0 0 1-.597-.627c-.895-1.097-1.997-1.79-2.87-2.194-2.501.358-4.98.94-7.368 1.68.62.313 1.285.693 1.928 1.208M26.56 6.94c1.17.582 2.41.359 2.823.269a43 43 0 0 1 5.854-2.194 6 6 0 0 1-.689-.47C33.423 3.649 32.161 3.2 31.22 3a48.7 48.7 0 0 0-6.864 3.18c.734.133 1.47.38 2.204.76M6.589 27.426c1.285-.224 2.157-1.12 2.456-1.456 1.033-1.813 2.18-3.582 3.466-5.239a5 5 0 0 1-.826.023c-1.538-.067-2.893.38-3.765.783a48 48 0 0 0-3.673 6.627 10.6 10.6 0 0 1 2.342-.739M18.525 12.314c1.332.336 2.548-.202 2.87-.358a43 43 0 0 1 5.233-3.359c-.252-.09-.505-.179-.78-.313-1.309-.65-2.64-.828-3.604-.828a46.6 46.6 0 0 0-6.038 4.567c.735 0 1.516.067 2.319.29M11.777 19.231c1.446.067 2.594-.828 2.777-.985a37 37 0 0 1 1.837-1.948 43 43 0 0 1 2.57-2.373 5.3 5.3 0 0 1-.826-.134c-1.446-.38-2.8-.247-3.742-.045l-.39.38a49 49 0 0 0-4.614 5.351 9 9 0 0 1 2.388-.246M1.836 46.12c1.171-.762 1.584-2.083 1.676-2.419.184-2.06.528-4.097 1.01-6.09a3.3 3.3 0 0 1-.688.337c-1.493.582-2.548 1.59-3.191 2.328a50 50 0 0 0-.62 7.455 9 9 0 0 1 1.813-1.612M77.475 83.687c-1.331-.336-2.548.201-2.87.358a44.5 44.5 0 0 1-5.21 3.358c.252.09.505.18.78.313 1.309.65 2.64.829 3.604.829a46.6 46.6 0 0 0 6.037-4.567c-.757 0-1.538-.068-2.341-.291M94.164 49.88c-1.17.762-1.584 2.083-1.676 2.418a42 42 0 0 1-1.01 6.09q.31-.201.689-.336c1.469-.582 2.548-1.59 3.19-2.328q.585-3.66.62-7.455a9 9 0 0 1-1.813 1.611M60.442 92.642c-1.056-.85-2.388-.873-2.755-.85a47 47 0 0 1-6.152.917c.207.18.413.38.597.627.895 1.097 1.997 1.791 2.87 2.194a48 48 0 0 0 7.368-1.679c-.62-.313-1.285-.694-1.928-1.209M41.274 93.873c-.643-1.209-1.836-1.79-2.18-1.925a44.5 44.5 0 0 1-5.923-1.634c.115.246.206.492.275.76.39 1.389 1.125 2.486 1.768 3.225 2.387.649 4.844 1.119 7.346 1.41a8 8 0 0 1-1.286-1.836"/><path fill="#000" d="m89.16 60.963.114-.023c.895-2.843 1.882-5.798 1.882-8.843 0-1.343.092-2.664.092-4.052 0-1.68-.206-3.38-.39-4.948h.092v-.067c-.46-3.045-1.056-6.022-2.02-8.843h-.023l-.023-.023C83.122 17.037 66.96 4.68 48 4.68c-19.282 0-35.673 12.784-41.16 30.358l-.022.023a42.9 42.9 0 0 0-1.974 12.918c0 1.679.092 3.604.275 4.947h.184v.068c.459 3.044.941 6.022 1.905 8.843h-.046v.022c5.762 17.105 21.9 29.463 40.861 29.463 19.26 0 35.65-12.784 41.136-30.358M11.73 48c0-20.171 16.276-36.582 36.27-36.582S84.27 27.828 84.27 48 67.994 84.582 48 84.582 11.73 68.172 11.73 48"/><path fill="#000" d="M31.931 91.478c-.344-1.276-1.354-2.06-1.722-2.306a47 47 0 0 1-5.486-2.866c.046.246.092.515.115.806.092 1.478.62 2.732 1.079 3.56a47 47 0 0 0 6.864 2.91c-.322-.627-.643-1.32-.85-2.104M23.277 87.18c-.092-1.389-.987-2.419-1.24-2.687a43 43 0 0 1-4.728-3.918c0 .268-.023.537-.046.806-.23 1.477.046 2.82.344 3.76a47 47 0 0 0 6.106 4.277 8.3 8.3 0 0 1-.436-2.239M64.07 4.522c.343 1.277 1.354 2.06 1.72 2.306a47 47 0 0 1 5.487 2.866 8 8 0 0 1-.115-.806c-.092-1.477-.62-2.731-1.079-3.56a47 47 0 0 0-6.863-2.91c.321.627.642 1.32.85 2.104M92.763 59.485c-1.193.47-1.882 1.545-2.112 1.948a45 45 0 0 1-2.272 5.843c.23-.067.482-.134.757-.18 1.561-.268 2.824-1.007 3.605-1.611a45.6 45.6 0 0 0 2.157-7.187c-.597.426-1.308.851-2.135 1.187M84.224 76.769c-1.447-.067-2.594.806-2.778.985a37 37 0 0 1-1.836 1.948 43 43 0 0 1-2.571 2.373q.412.033.826.134c1.446.38 2.8.246 3.742.045l.39-.38a49 49 0 0 0 4.614-5.352 9 9 0 0 1-2.387.247M80.299 14.82c-.207 1.456.55 2.71.688 2.933a47 47 0 0 1 3.788 4.77q.069-.37.207-.74c.528-1.433.528-2.843.436-3.828a54 54 0 0 0-3.42-3.828c-.552-.538-1.103-1.075-1.653-1.59a9.6 9.6 0 0 1-.046 2.284M89.412 68.575c-1.263.224-2.158 1.12-2.457 1.455-1.032 1.813-2.18 3.582-3.466 5.239a5 5 0 0 1 .827-.023c1.538.068 2.892-.38 3.764-.783a48 48 0 0 0 3.673-6.627 10.6 10.6 0 0 1-2.341.739M45.062 1.724c.987 1.209 2.525 1.41 2.616 1.433h.299c1.951 0 3.88.134 5.762.38-.161-.224-.322-.447-.46-.716C52.638 1.567 51.697.67 50.94.09A44 44 0 0 0 47.953 0c-1.538 0-3.053.067-4.545.224.596.38 1.148.895 1.653 1.5M50.938 94.276c-.987-1.186-2.502-1.41-2.617-1.432h-.298c-1.951 0-3.88-.135-5.785-.381.161.224.322.448.46.716.642 1.254 1.583 2.15 2.34 2.732.988.067 1.975.09 2.985.09 1.538 0 3.053-.068 4.545-.225-.574-.38-1.125-.895-1.63-1.5M2.456 55.79c.987-1.007 1.125-2.372 1.148-2.73A46 46 0 0 1 3.329 48c0-.358 0-.739.022-1.097q-.275.269-.62.47c-1.33.873-2.18 2.082-2.662 2.955.115 2.508.436 4.993.941 7.41.344-.649.826-1.32 1.446-1.947M15.702 81.179c.23-1.455-.551-2.709-.689-2.933a47 47 0 0 1-3.788-4.768 4.4 4.4 0 0 1-.206.738c-.528 1.433-.551 2.844-.436 3.829 1.079 1.32 2.203 2.62 3.443 3.828.55.537 1.102 1.075 1.653 1.59a8.5 8.5 0 0 1 .023-2.284M72.723 8.82c.092 1.389.987 2.419 1.24 2.687a43 43 0 0 1 4.729 3.918c0-.268.023-.537.046-.806.23-1.477-.046-2.843-.345-3.76a47 47 0 0 0-6.106-4.277c.23.672.39 1.41.436 2.239M54.703 2.127c.643 1.209 1.836 1.768 2.18 1.925a44.5 44.5 0 0 1 5.923 1.635 4.3 4.3 0 0 1-.275-.762c-.39-1.388-1.148-2.485-1.768-3.224a50 50 0 0 0-7.346-1.41c.505.515.942 1.12 1.286 1.836M5.05 65.127c.689-1.097.62-2.373.574-2.821a45 45 0 0 1-1.56-6.045 4 4 0 0 1-.483.582c-1.125 1.142-1.699 2.508-1.997 3.448.643 2.418 1.446 4.769 2.456 7.03.23-.694.551-1.455 1.01-2.194M93.291 48.627c1.332-.873 2.181-2.105 2.663-2.955a47 47 0 0 0-.941-7.41c-.367.648-.85 1.32-1.446 1.947-.987 1.008-1.125 2.373-1.148 2.731.184 1.68.275 3.359.275 5.06 0 .358 0 .739-.023 1.097.184-.157.39-.336.62-.47M89.274 30.717c.092-.224.207-.448.344-.65.85-1.343 1.148-2.776 1.24-3.761a50 50 0 0 0-3.857-6.336c-.068.717-.23 1.5-.528 2.306-.459 1.254-.114 2.508.023 2.91a46 46 0 0 1 2.778 5.53M90.95 30.873c-.689 1.097-.62 2.373-.574 2.821a45 45 0 0 1 1.56 6.045 4 4 0 0 1 .483-.582c1.125-1.142 1.699-2.508 1.997-3.448-.643-2.418-1.446-4.769-2.456-7.03-.23.694-.551 1.455-1.01 2.194M69.44 89.06c-1.17-.582-2.41-.358-2.823-.269a43 43 0 0 1-5.854 2.194q.345.202.689.47c1.125.896 2.387 1.344 3.328 1.545a46.4 46.4 0 0 0 6.864-3.201 7.1 7.1 0 0 1-2.204-.74"/><path fill="red" d="m66.135 62.888-8.448-11.172a13.2 13.2 0 0 0 3.81-2.26c2.044-1.77 4.5-5.105 4.5-10.949 0-4.88-2.158-7.858-3.948-9.492-4.178-3.739-9.688-3.627-11.455-3.627H33.767c-2.685 0-4.843 2.15-4.843 4.769 0 .112.023.246.023.358v4.276h23.667c2.112 0 3.88 1.814 3.88 3.873v.896c0 2.06-1.768 3.738-3.88 3.738h-3.742a4.84 4.84 0 0 0-4.315 2.597 4.58 4.58 0 0 0 .436 4.926l13.36 17.664c.941 1.254 2.41 1.925 3.902 1.925.987 0 1.997-.29 2.87-.917a4.66 4.66 0 0 0 1.01-6.605"/><path fill="#000" d="M28.947 43.299v22.164h.046c.344 2.91 2.8 5.015 5.762 5.015 2.96 0 5.417-2.172 5.761-4.993l.07-22.186z"/></svg>
